public/skills/java.svg

<svg width="256" height="346" viewBox="0 0 256 346" fill="none" xmlns="http://www.w3.org/2000/svg">
<path d="M82.5537 267.473C82.5537 267.473 69.3553 275.148 91.9466 277.745C119.315 280.868 133.303 280.42 163.464 274.711C163.464 274.711 171.393 279.683 182.467 283.99C114.855 312.967 29.4481 282.311 82.5537 267.473Z" fill="#5382A1"/>
<path d="M74.2918 229.658C74.2918 229.658 59.4885 240.616 82.0966 242.954C111.333 245.971 134.421 246.217 174.373 238.524C174.373 238.524 179.899 244.126 188.588 247.19C106.841 271.094 15.7898 249.075 74.2918 229.658Z" fill="#5382A1"/>
<path d="M143.941 165.514C160.601 184.694 139.564 201.954 139.564 201.954C139.564 201.954 181.866 180.117 162.439 152.772C144.294 127.27 130.38 114.6 205.706 70.9131C205.706 70.9131 87.4688 100.443 143.941 165.514Z" fill="#E76F00"/>
<path d="M233.364 295.442C233.364 295.442 243.131 303.489 222.607 309.715C183.581 321.538 60.1746 325.108 25.893 310.186C13.5696 304.825 36.6794 297.385 43.9489 295.824C51.5302 294.18 55.8626 294.487 55.8626 294.487C42.1578 284.832 -32.7199 313.444 17.8285 321.637C155.681 343.993 269.121 311.571 233.364 295.442Z" fill="#5382A1"/>
<path d="M88.9009 190.479C88.9009 190.479 26.1288 205.389 66.6718 210.803C83.7902 213.095 117.916 212.576 149.702 209.913C175.68 207.721 201.765 203.062 201.765 203.062C201.765 203.062 192.605 206.985 185.978 211.51C122.234 228.275 -0.907585 220.476 34.5433 203.327C64.5242 188.835 88.9009 190.479 88.9009 190.479Z" fill="#5382A1"/>
<path d="M201.506 253.422C266.305 219.75 236.345 187.392 215.433 191.751C210.307 192.818 208.022 193.742 208.022 193.742C208.022 193.742 209.925 190.761 213.559 189.471C254.929 174.927 286.746 232.368 200.204 255.119C200.204 255.12 201.207 254.223 201.506 253.422Z" fill="#5382A1"/>
<path d="M162.438 0.371094C162.438 0.371094 198.325 36.2697 128.401 91.4717C72.33 135.753 115.615 161.001 128.378 189.848C95.6484 160.318 71.6291 134.322 87.7431 110.128C111.395 74.613 176.918 57.3939 162.438 0.371094Z" fill="#E76F00"/>
<path d="M95.2684 344.665C157.467 348.647 252.98 342.456 255.242 313.025C255.242 313.025 250.894 324.182 203.838 333.043C150.751 343.033 85.2742 341.867 46.4395 335.464C46.4404 335.463 54.3894 342.044 95.2684 344.665Z" fill="#5382A1"/>
</svg>

<svg xmlns="http://www.w3.org/2000/svg" width="1850" height="2500" preserveAspectRatio="xMinYMin meet" viewBox="0 0 256 346"><path fill="#5382A1" d="M82.554 267.473s-13.198 7.675 9.393 10.272c27.369 3.122 41.356 2.675 71.517-3.034 0 0 7.93 4.972 19.003 9.279-67.611 28.977-153.019-1.679-99.913-16.517M74.292 229.659s-14.803 10.958 7.805 13.296c29.236 3.016 52.324 3.263 92.276-4.43 0 0 5.526 5.602 14.215 8.666-81.747 23.904-172.798 1.885-114.296-17.532"/><path fill="#E76F00" d="M143.942 165.515c16.66 19.18-4.377 36.44-4.377 36.44s42.301-21.837 22.874-49.183c-18.144-25.5-32.059-38.172 43.268-81.858 0 0-118.238 29.53-61.765 94.6"/><path fill="#5382A1" d="M233.364 295.442s9.767 8.047-10.757 14.273c-39.026 11.823-162.432 15.393-196.714.471-12.323-5.36 10.787-12.8 18.056-14.362 7.581-1.644 11.914-1.337 11.914-1.337-13.705-9.655-88.583 18.957-38.034 27.15 137.853 22.356 251.292-10.066 215.535-26.195M88.9 190.48s-62.771 14.91-22.228 20.323c17.118 2.292 51.243 1.774 83.03-.89 25.978-2.19 52.063-6.85 52.063-6.85s-9.16 3.923-15.787 8.448c-63.744 16.765-186.886 8.966-151.435-8.183 29.981-14.492 54.358-12.848 54.358-12.848M201.506 253.422c64.8-33.672 34.839-66.03 13.927-61.67-5.126 1.066-7.411 1.99-7.411 1.99s1.903-2.98 5.537-4.27c41.37-14.545 73.187 42.897-13.355 65.647 0 .001 1.003-.895 1.302-1.697"/><path fill="#E76F00" d="M162.439.371s35.887 35.9-34.037 91.101c-56.071 44.282-12.786 69.53-.023 98.377-32.73-29.53-56.75-55.526-40.635-79.72C111.395 74.612 176.918 57.393 162.439.37"/><path fill="#5382A1" d="M95.268 344.665c62.199 3.982 157.712-2.209 159.974-31.64 0 0-4.348 11.158-51.404 20.018-53.088 9.99-118.564 8.824-157.399 2.421.001 0 7.95 6.58 48.83 9.201"/></svg>
